src/assets/desktop/question.svg

<svg width="20" height="20" viewBox="0 0 20 20" fill="none" xmlns="http://www.w3.org/2000/svg">
<path d="M9.40002 11.5883C9.40002 11.9197 9.66865 12.1883 10 12.1883C10.3314 12.1883 10.6 11.9197 10.6 11.5883H9.40002ZM10 10.7942V10.1942C9.66865 10.1942 9.40002 10.4629 9.40002 10.7942H10ZM6.75298 8.41188C6.75298 8.74325 7.02161 9.01188 7.35298 9.01188C7.68435 9.01188 7.95298 8.74325 7.95298 8.41188H6.75298ZM10.0021 15.6956C10.7171 15.6956 11.2969 15.1159 11.2969 14.4007H10.0969C10.0969 14.4531 10.0545 14.4956 10.0021 14.4956V15.6956ZM11.2969 14.4007C11.2969 13.6856 10.7172 13.1059 10.0021 13.1059V14.3059C10.0544 14.3059 10.0969 14.3484 10.0969 14.4007H11.2969ZM10.0021 13.1059C9.28699 13.1059 8.70723 13.6856 8.70723 14.4007H9.90723C9.90723 14.3484 9.94973 14.3059 10.0021 14.3059V13.1059ZM8.70723 14.4007C8.70723 15.1159 9.28704 15.6956 10.0021 15.6956V14.4956C9.94969 14.4956 9.90723 14.4531 9.90723 14.4007H8.70723ZM10.6 11.5883V10.7942H9.40002V11.5883H10.6ZM10 11.3942C11.8203 11.3942 13.2471 9.85288 13.2471 8.01482H12.0471C12.0471 9.24602 11.103 10.1942 10 10.1942V11.3942ZM13.2471 8.01482C13.2471 6.17677 11.8203 4.63542 10 4.63542V5.83542C11.103 5.83542 12.0471 6.78362 12.0471 8.01482H13.2471ZM10 4.63542C8.17972 4.63542 6.75298 6.17677 6.75298 8.01482H7.95298C7.95298 6.78362 8.897 5.83542 10 5.83542V4.63542ZM6.75298 8.01482V8.41188H7.95298V8.01482H6.75298ZM10 19.6C15.3019 19.6 19.6 15.3019 19.6 9.99995H18.4C18.4 14.6392 14.6392 18.4 10 18.4V19.6ZM19.6 9.99995C19.6 4.69806 15.3019 0.4 10 0.4V1.6C14.6392 1.6 18.4 5.3608 18.4 9.99995H19.6ZM10 0.4C4.69808 0.4 0.4 4.69806 0.4 9.99995H1.6C1.6 5.3608 5.36081 1.6 10 1.6V0.4ZM0.4 9.99995C0.4 15.3019 4.69807 19.6 10 19.6V18.4C5.36082 18.4 1.6 14.6392 1.6 9.99995H0.4Z" fill="#090C21"/>
</svg>

<svg xmlns="http://www.w3.org/2000/svg" width="20" height="20" fill="none"><path fill="#090C21" d="M9.4 11.588a.6.6 0 1 0 1.2 0zm.6-.794v-.6a.6.6 0 0 0-.6.6zM6.753 8.412a.6.6 0 0 0 1.2 0zm3.25 7.284c.714 0 1.294-.58 1.294-1.295h-1.2a.095.095 0 0 1-.095.095zm1.294-1.295c0-.715-.58-1.295-1.295-1.295v1.2c.052 0 .095.042.095.095zm-1.295-1.295c-.715 0-1.295.58-1.295 1.295h1.2c0-.053.043-.095.095-.095zM8.707 14.4c0 .715.58 1.295 1.295 1.295v-1.2a.095.095 0 0 1-.095-.095zm1.893-2.813v-.794H9.4v.794zm-.6-.194c1.82 0 3.247-1.541 3.247-3.38h-1.2c0 1.232-.944 2.18-2.047 2.18zm3.247-3.38c0-1.837-1.427-3.379-3.247-3.379v1.2c1.103 0 2.047.949 2.047 2.18zM10 4.636c-1.82 0-3.247 1.542-3.247 3.38h1.2c0-1.231.944-2.18 2.047-2.18zm-3.247 3.38v.397h1.2v-.397zM10 19.6a9.6 9.6 0 0 0 9.6-9.6h-1.2a8.4 8.4 0 0 1-8.4 8.4zm9.6-9.6A9.6 9.6 0 0 0 10 .4v1.2a8.4 8.4 0 0 1 8.4 8.4zM10 .4A9.6 9.6 0 0 0 .4 10h1.2A8.4 8.4 0 0 1 10 1.6zM.4 10a9.6 9.6 0 0 0 9.6 9.6v-1.2A8.4 8.4 0 0 1 1.6 10z"/></svg>
